public/illustrations/_cinema.svg

<svg width="409" height="230" viewBox="0 0 409 230" fill="none" xmlns="http://www.w3.org/2000/svg">
<path d="M387.232 188.097C387.261 192.656 387.161 197.074 387.36 201.378C387.388 202.383 388.648 203.671 389.583 204.209C390.786 204.917 391.65 206.022 392.216 207.239C392.782 208.457 392.896 209.887 392.584 211.275C392.216 214.361 391.848 217.462 391.211 220.378C390.446 225.561 387.275 227.033 383.296 226.991C346.484 227.161 309.799 227.5 272.972 227.812C239.147 228.052 205.322 228.307 171.638 228.562L82.5804 229.213L31.2127 229.511C24.9263 229.61 22.845 227.939 22.0238 221.709C21.5141 218.793 21.2875 215.918 20.9335 212.889C20.7636 210.736 20.8911 208.457 22.7459 207.253C26.4413 204.988 26.3988 201.703 25.8183 198.206C25.7475 197.626 25.6768 197.045 25.5068 196.026C22.0946 195.898 18.8381 195.799 15.5533 195.842C12.4242 195.757 9.40843 195.969 6.27936 195.87C2.17335 195.672 0.106213 193.845 0.0212608 189.711C-0.0636911 183.283 0.120316 176.883 0.318537 170.498C0.729138 152.729 0.983994 135.073 1.38044 117.29C1.81936 99.2376 2.38573 81.3411 2.82465 63.2748C3.22109 46.78 3.46179 30.4127 3.71665 13.9038C3.84408 10.4915 3.82992 6.93767 5.48648 3.8511C5.9254 2.6193 6.7608 1.57162 7.8227 0.991119C8.91291 0.269031 10.2296 0 11.5039 0C21.3159 0.169903 31.0287 0.0424447 40.7274 0.0566033C64.3865 0.169872 88.0456 0.283127 111.691 0.396396C123.386 0.368079 135.081 0.339803 146.762 0.438913C159.023 0.481389 171.114 0.637095 183.376 0.665413C207.177 0.79284 230.977 0.920295 254.764 1.04772C266.445 1.16099 278.154 0.991077 289.849 0.948602C306.514 1.07603 323.178 1.21763 340.013 1.23179C352.416 1.28843 364.677 1.31671 377.066 1.37334C383.622 1.44414 390.163 1.51495 396.718 1.57158L398.687 1.81226C407.125 2.81752 407.578 5.01213 407.649 11.5817C407.734 26.4199 407.691 41.1024 407.776 55.9406C407.819 74.7716 407.975 93.744 408.017 112.575C408.031 127.979 408.045 143.384 408.074 158.774C408.102 165.769 408.272 172.636 408.159 179.602C408.074 185.152 406.021 186.766 400.556 187.106C398.531 187.29 396.52 187.474 394.354 187.644C392.329 187.828 390.163 188.139 387.275 188.366L387.161 188.069L387.232 188.097ZM227.155 102.706C226.9 101.248 226.928 99.8323 227.254 98.3031C228.358 95.0183 226.815 92.399 225.13 89.7796C222.85 86.2258 221.349 82.0632 220.981 77.8723C220.641 73.5539 221.42 69.3629 223.317 65.4552C224.705 62.1987 226.376 58.9706 228.032 55.7566C233.625 45.8739 241.681 38.1291 249.61 30.2427C261.263 18.661 275.124 17.1743 290.005 20.3742C306.811 24.0837 322.697 30.8374 338.767 37.1663C356.48 44.1323 374.022 51.2116 391.721 58.3051C393.08 58.8997 394.623 59.0838 396.534 59.7351C396.449 43.7501 396.421 28.3596 396.322 12.5162L231.728 11.7091C228.953 17.0752 225.257 21.7759 220.769 25.9386C215.091 31.6728 207.927 35.5239 200.168 37.3079C198.696 37.7043 197.45 38.5538 196.458 39.7148C193.825 42.674 191.432 45.9588 188.94 48.9463C187.269 51.0276 185.33 52.939 183.135 54.5248C182.342 55.1477 181.436 55.6007 180.417 55.7706C179.397 55.9405 178.392 55.9547 177.429 55.6999C176.438 55.5866 175.518 55.0486 174.739 54.3831C173.96 53.7177 173.337 52.939 172.884 52.0187C172.091 50.3479 171.568 48.7197 171.199 46.964C170.435 42.589 169.684 38.0866 169.231 33.6125C169.231 32.4656 168.92 31.4321 168.311 30.5118C167.702 29.5914 166.938 28.926 166.003 28.388C160.255 25.1315 156.078 20.7848 154.138 14.286C153.954 13.4081 153.359 12.4879 152.567 11.964C151.774 11.4402 150.811 11.1853 149.792 11.341C127.279 11.2278 104.767 11.1004 82.2406 10.9871C64.2874 10.8455 46.32 10.8454 28.2253 10.8171C23.9352 10.8737 19.5177 10.9162 14.6613 10.9162C14.2082 29.11 13.7835 47.0348 13.472 65.1012C14.633 64.9596 15.4967 64.9171 16.3745 64.7331C29.8252 61.9155 43.276 59.098 56.7408 56.2804C76.6338 52.0895 96.4134 47.6011 116.292 43.5659C123.881 42.051 131.428 40.9467 139.187 40.4511C143.066 40.1963 147.13 40.8333 150.669 42.2492C154.337 43.8208 157.621 46.072 160.127 49.0737C164.276 53.7035 167.334 59.1971 169.047 65.1154C171.412 72.8176 173.621 80.6332 175.376 88.5478C177.698 98.9544 177.585 109.488 173.79 119.725C172.049 124.794 171.837 130.188 173.068 135.328C173.592 138.103 174.116 140.878 174.739 144.078C191.262 144.191 208.111 144.078 225.668 143.88C224.535 142.605 224.04 141.968 223.53 141.487C218.291 136.446 214.157 130.386 211.382 123.789C210.037 120.773 209.13 117.53 208.677 114.203C207.601 106.515 216.224 98.6996 223.827 101.899C224.79 102.154 225.767 102.409 226.744 102.537L227.155 102.735V102.706ZM396.789 151.03C396.789 148.609 397.044 146.499 397.016 144.361C397.016 133.671 396.846 123.095 396.832 112.405C396.761 100.993 396.832 89.5956 396.775 78.1837C396.775 73.4831 395.005 71.5575 390.517 69.7311C377.845 64.8039 365.159 60.0041 352.501 54.9353C334.548 47.6578 316.623 40.1113 298.217 34.2071C294.932 33.1028 291.59 32.4232 288.419 31.4745C281.778 45.3641 270.239 48.8471 253.631 42.1501C252.003 43.8066 250.091 45.5765 248.307 47.3605C241.823 53.8593 236.782 61.5333 233.328 70.0992C232.337 72.4071 231.883 75.0547 232.152 77.5183C232.407 80.1093 233.413 82.5163 235.027 84.5551C237.051 84.371 239.189 84.3427 241.186 84.2861C243.012 84.4985 244.952 85.0224 246.722 85.6595L247.118 82.2897C248.138 73.7096 254.466 68.4851 262.976 68.924C266.671 69.0798 270.381 70.2408 273.566 72.1805C280.759 76.4564 287.428 81.5393 293.587 87.2593C308.708 101.616 326.817 109.899 347.036 113.736C348.154 113.863 349.301 113.863 350.476 113.58C354.568 112.787 356.947 114.345 357.825 117.743C358.009 118.621 358.051 119.484 357.825 120.164C357.726 121.013 357.343 121.82 356.834 122.472C356.324 123.123 355.687 123.76 355.064 124.114C354.299 124.596 353.563 124.794 352.685 124.964C350.788 125.303 348.806 125.219 346.993 124.85C333.443 122.528 320.276 118.097 308.085 111.513C299.236 106.756 291.633 100.002 283.987 93.5317C279.329 89.5531 274.204 85.9426 269.191 82.5021C267.337 81.2844 265.298 80.4633 263.202 80.081C259.266 79.6138 257.482 81.3978 258.318 85.2064C258.983 87.9957 259.804 90.6575 260.923 93.2202C261.56 95.0042 262.353 96.8164 262.848 98.5862C263.16 99.6198 263.16 100.767 262.749 101.857C262.339 102.947 261.673 103.726 260.725 104.462C259.918 105.227 258.884 105.524 257.723 105.68C256.576 105.68 255.472 105.411 254.551 104.731C252.824 103.669 251.295 102.197 249.582 101.007C246.693 98.9545 243.833 96.6182 240.364 95.7687C239.274 96.4908 238.581 97.5527 238.297 98.7986C238.014 100.045 238 101.333 238.566 102.537C239.657 105.382 240.761 108.072 242.007 110.791C243.026 113.056 244.456 115.364 245.476 117.615C246.056 118.677 246.198 119.98 245.901 121.226C245.745 122.486 245.051 123.548 244.102 124.298C243.154 125.035 241.964 125.474 240.803 125.615C239.515 125.615 238.411 125.332 237.349 124.638C235.89 123.746 234.899 122.486 233.611 121.339C230.609 118.989 227.608 116.638 224.45 114.401C222.978 113.651 221.477 113.042 219.82 112.561C220.16 114.458 220.514 116.355 221.151 118.139C223.685 124.426 227.438 130.004 232.294 134.719C235.126 137.338 237.787 140.085 240.435 142.959C240.945 143.455 241.455 143.936 242.148 144.163C242.842 144.389 243.522 144.616 244.117 144.403C248.123 144.304 252.102 144.361 256.095 144.403L322.739 143.936C332.735 143.851 342.703 143.894 352.855 143.681C357.442 143.512 359.68 145.069 359.849 149.642C360.062 153.805 359.722 157.897 359.651 162.031C359.595 163.73 359.665 165.457 359.594 167.298L362.681 167.666C368.061 168.02 373.428 168.374 378.822 168.586C380.238 168.615 381.781 168.94 382.956 169.79C384.16 170.498 385.307 171.645 386.015 172.862C387.685 175.623 390.121 177.917 393.958 176.798C394.977 176.628 395.996 176.473 397.016 176.303L396.789 163.871C396.549 163.56 396.138 163.362 395.727 163.178C395.048 162.951 394.212 162.711 393.533 162.484C383.126 158.817 376.118 151.851 372.833 141.19C372.097 138.967 371.643 136.772 371.077 134.422C369.166 125.36 370.398 116.228 369.902 107.195C369.732 105.043 369.86 102.763 369.973 100.639C370.341 96.4059 372.649 93.6873 375.919 93.7864C379.049 93.8714 381.186 96.2643 381.201 100.979C381.201 108.115 381.201 115.378 381.186 122.656C381.073 128.348 381.965 134.011 383.905 139.377C384.839 142.336 386.524 144.97 388.676 147.221C390.984 149.345 393.66 150.817 396.704 151.596L396.775 151.03H396.789ZM55.1975 161.337C55.2825 158.208 55.4524 155.66 55.4665 153.097C55.4665 147.108 57.7602 144.673 63.8768 144.687C76.7328 144.503 89.5464 144.616 102.403 144.432C121.375 144.418 140.206 144.234 159.037 144.191C160.453 144.219 161.911 143.965 163.214 143.837C162.86 140.807 162.747 138.216 162.322 135.753C160.949 129.31 161.472 122.528 163.639 116.369C168.736 102.296 165.069 88.8735 160.793 75.6777C157.763 76.0317 155.115 76.7112 152.581 76.4139C148.22 75.89 143.958 74.5308 140.249 72.2371C136.553 69.8018 133.509 66.5878 131.4 62.765C129.488 59.6784 127.888 56.3512 125.778 52.5425L13.4012 76.6405C12.8915 100.101 12.3959 123.293 11.8579 147.037C16.1621 144.418 19.7301 140.85 22.1087 136.418C27.9846 126.564 31.142 115.676 33.733 104.717C33.9454 102.891 34.1861 100.923 34.1294 99.0536C33.9737 95.613 35.4179 93.0785 38.1789 92.5546C38.9151 92.3564 39.623 92.4415 40.3167 92.5265C41.0105 92.6114 41.6901 92.9795 42.3556 93.3334C43.0211 93.7016 43.5166 94.3246 43.8706 94.9475C44.2245 95.5564 44.5644 96.3067 44.621 97.0288C45.1591 99.6623 45.2723 102.381 44.9467 105.057C43.0211 115.237 39.8213 125.261 35.4179 134.719C30.5898 145.267 23.9777 154.173 13.2171 159.454C12.6083 159.808 12.1127 160.318 11.7729 160.856C11.4048 161.521 11.3199 162.229 11.5323 162.824C11.5039 167.808 11.3481 172.777 11.3057 177.917C11.2066 179.899 11.2633 181.91 11.2774 184.189L25.7475 184.77L26.3705 179.574C26.7245 176.614 26.7953 173.641 27.4324 170.71C28.5368 164.99 31.7083 162.385 37.4426 162.059C43.1768 161.748 49.0527 161.592 55.2259 161.181V161.323L55.1975 161.337ZM209.668 202.723C231.388 202.312 252.64 202.284 274.26 201.59C274.444 185.647 274.699 170.413 274.572 154.711L210.079 155.008C209.867 171.093 209.725 186.624 209.683 202.581V202.723H209.668ZM136.596 155.504C136.213 171.857 135.902 187.644 135.548 203.714C156.687 203.388 177.514 203.303 198.554 202.666C198.766 186.582 198.922 170.908 198.95 155.093L136.454 155.49H136.596V155.504ZM348.735 154.569L285.814 154.909C285.644 170.71 285.531 185.959 285.502 201.788L347.347 200.896C347.786 185.265 348.154 170.2 348.593 154.555H348.735V154.569ZM66.5386 155.858C66.2413 172.65 66.0572 188.592 65.9722 204.847L124.532 203.983L125.594 155.631L66.5386 155.858ZM32.9826 218.439L380.648 215.834L381.102 212.039C375.127 211.897 369.336 211.487 363.63 211.529C349.655 211.572 335.638 211.898 321.649 212.082L205.237 213.738C183.956 214.05 162.534 214.347 141.24 214.658C121.658 215.026 102.218 215.423 82.6653 215.664C77.101 215.706 71.6499 215.919 66.128 215.692C56.486 215.253 46.8722 214.531 37.2443 213.965L32.572 213.696C32.6711 215.281 32.8127 216.428 33.0251 218.311V218.453L32.9826 218.439ZM165.451 11.5109C165.593 12.672 166.173 13.8754 166.768 14.8098C167.504 15.7585 168.254 16.693 169.33 17.2593C171.044 18.4628 172.899 19.6805 174.739 20.8981C176.339 21.8043 177.613 23.0926 178.576 24.6359C179.539 26.1792 180.034 27.9491 180.119 29.6623C180.431 32.9754 181.054 36.1893 181.606 39.9555C182.739 38.8087 183.39 38.1715 184.055 37.3928C185.882 35.1841 187.581 32.9612 189.266 30.7383C190.115 29.5631 191.234 28.5437 192.48 27.6942C193.712 26.9863 195.198 26.4482 196.628 26.335C202.405 25.7403 207.021 22.8661 211.424 19.3973C214.228 17.4434 216.55 14.725 217.909 11.6101L165.324 11.3269L165.451 11.4826V11.5109ZM38.0939 173.131C38.0656 178.115 37.9664 182.533 37.8532 187.077L37.7116 200.174C37.5417 201.576 37.9523 202.907 39.6655 202.978C44.621 203.289 49.5907 203.445 54.8435 203.643C54.971 192.968 55.1692 183 55.2683 172.607L38.2355 173.145H38.0939V173.131ZM376.344 178.965C370.483 179.12 365.06 177.903 359.311 178.356C358.986 185.874 358.703 192.967 358.405 200.344C364.522 200.5 370.383 201.491 376.203 198.192C376.203 193.35 376.245 188.21 376.429 183.099C376.429 181.952 376.429 180.819 376.372 178.809V178.95L376.344 178.965Z" fill="#102185"/>
<path d="M315.151 69.1365C313.466 68.9383 311.979 68.188 310.846 66.9137C309.714 65.6394 309.19 64.0112 309.261 62.298C309.346 61.59 309.572 60.9104 309.94 60.245C310.308 59.5795 310.79 59.0698 311.427 58.5743C312.064 58.0787 312.673 57.7247 313.395 57.6681C314.131 57.4699 314.853 57.4132 315.547 57.4982C317.232 57.6964 318.69 58.5884 319.809 60.0043C320.8 61.2644 321.465 62.9068 321.253 64.5917C321.083 65.9934 320.219 67.3242 319.115 68.1879C318.011 69.0516 316.538 69.4481 315.136 69.2782V69.1365H315.151Z" fill="#102185"/>
<path d="M337.068 81.4544C335.524 81.2704 334.194 80.3925 333.344 79.1607C332.495 77.9148 331.957 76.4281 332.141 74.8848C332.325 73.3415 332.31 73.4832 332.82 72.8319C333.188 72.1664 333.67 71.6567 334.307 71.1612C334.944 70.6656 335.539 70.4532 336.275 70.255C337.011 70.0568 337.733 70.0002 338.427 70.0851C339.97 70.2692 341.301 71.147 342.151 72.3788C343 73.6247 343.397 75.0972 343.227 76.4989C343.057 77.9006 342.307 79.3873 341.216 80.251C340.098 81.2562 338.625 81.6526 337.068 81.6101V81.4544Z" fill="#102185"/>
<path d="M86.4741 89.0715C87.182 89.1564 87.8757 89.2414 88.5553 89.6095C89.235 89.9776 89.7589 90.3175 90.1128 90.9405C90.6226 91.4361 90.8207 92.1722 91.0331 92.7669C91.2455 93.3615 91.3021 94.0837 91.2172 94.7916C91.019 96.4765 90.2544 98.1047 88.8385 99.2091C87.5643 100.342 85.7944 100.837 84.0812 100.781C82.5379 100.597 81.0372 99.9878 80.0319 98.8693C79.0266 97.7508 78.347 96.2498 78.3894 94.6782C78.7717 91.4501 82.5237 88.76 86.3324 89.0715H86.4741Z" fill="#102185"/>
<path d="M119.875 86.4954C119.79 87.2034 119.691 88.0387 119.322 88.7183C118.954 89.3979 118.459 90.0351 117.822 90.5307C117.184 91.0262 116.576 91.3802 115.839 91.5784C115.103 91.7766 114.239 91.8191 113.546 91.7341C111.861 91.5359 110.402 90.6439 109.425 89.2422C108.434 87.9821 107.939 86.2123 108.137 84.5274C108.222 83.8195 108.307 83.1257 108.817 82.4744C109.185 81.809 109.666 81.2992 110.162 80.7754C110.785 80.2798 111.408 79.9259 112.144 79.7277C112.88 79.5294 113.602 79.4728 114.296 79.5578C115.146 79.6569 115.981 79.756 116.632 80.2657C117.298 80.6338 117.949 81.1294 118.586 81.7807C119.082 82.4036 119.563 83.1823 119.761 83.9185C119.959 84.6548 120.144 85.5327 120.045 86.3822L119.889 86.5096L119.875 86.4954Z" fill="#102185"/>
</svg>

<svg xmlns="http://www.w3.org/2000/svg" width="409" height="230" fill="none" viewBox="0 0 409 230"><path fill="#102185" d="M387.232 188.097c.029 4.559-.071 8.977.128 13.281.028 1.005 1.288 2.293 2.223 2.831 1.203.708 2.067 1.813 2.633 3.03.566 1.218.68 2.648.368 4.036-.368 3.086-.736 6.187-1.373 9.103-.765 5.183-3.936 6.655-7.915 6.613-36.812.17-73.497.509-110.324.821-33.825.24-67.65.495-101.334.75l-89.058.651-51.367.298c-6.287.099-8.368-1.572-9.19-7.802-.509-2.916-.735-5.791-1.09-8.82-.17-2.153-.042-4.432 1.813-5.636 3.695-2.265 3.653-5.55 3.072-9.047-.07-.58-.141-1.161-.311-2.18-3.412-.128-6.669-.227-9.954-.184-3.129-.085-6.145.127-9.274.028-4.106-.198-6.173-2.025-6.258-6.159-.085-6.428.1-12.828.298-19.213.41-17.769.665-35.425 1.061-53.208.44-18.052 1.006-35.949 1.445-54.015.396-16.495.637-32.862.892-49.371.127-3.412.113-6.966 1.77-10.053.438-1.232 1.274-2.28 2.336-2.86C8.913.27 10.23 0 11.503 0c9.813.17 19.526.042 29.224.057l70.964.34c11.695-.029 23.39-.057 35.071.042 12.261.042 24.352.198 36.614.226l71.388.383c11.681.113 23.39-.057 35.085-.1 16.665.128 33.329.27 50.164.284 12.403.056 24.664.085 37.053.141 6.556.071 13.097.142 19.652.199l1.969.24c8.438 1.006 8.891 3.2 8.962 9.77.085 14.838.042 29.52.127 44.359.043 18.83.199 37.803.241 56.634.014 15.404.028 30.809.057 46.199.028 6.995.198 13.862.085 20.828-.085 5.55-2.138 7.164-7.603 7.504-2.025.184-4.036.368-6.202.538-2.025.184-4.191.495-7.079.722l-.114-.297zm-160.077-85.391c-.255-1.458-.227-2.874.099-4.403 1.104-3.285-.439-5.904-2.124-8.523-2.28-3.554-3.781-7.717-4.149-11.908-.34-4.318.439-8.51 2.336-12.417 1.388-3.256 3.059-6.484 4.715-9.698 5.593-9.883 13.649-17.628 21.578-25.514 11.653-11.582 25.514-13.069 40.395-9.869 16.806 3.71 32.692 10.463 48.762 16.792 17.713 6.966 35.255 14.046 52.954 21.14 1.359.594 2.902.778 4.813 1.43-.085-15.986-.113-31.376-.212-47.22l-164.594-.807c-2.775 5.366-6.471 10.067-10.959 14.23-5.678 5.734-12.842 9.585-20.601 11.369-1.472.396-2.718 1.246-3.71 2.407-2.633 2.959-5.026 6.244-7.518 9.231-1.671 2.082-3.61 3.993-5.805 5.579-.793.623-1.699 1.076-2.718 1.246-1.02.17-2.025.184-2.988-.071-.991-.113-1.911-.651-2.69-1.317a7.35 7.35 0 0 1-1.855-2.364 22 22 0 0 1-1.685-5.055c-.764-4.375-1.515-8.877-1.968-13.352a5.5 5.5 0 0 0-.92-3.1c-.609-.92-1.373-1.586-2.308-2.124-5.748-3.257-9.925-7.603-11.865-14.102-.184-.878-.779-1.798-1.571-2.322a3.92 3.92 0 0 0-2.775-.623c-22.513-.113-45.025-.24-67.551-.354-17.954-.142-35.921-.142-54.016-.17-4.29.057-8.707.1-13.564.1-.453 18.193-.877 36.118-1.189 54.184 1.161-.141 2.025-.184 2.903-.368 13.45-2.818 26.901-5.635 40.366-8.453 19.893-4.19 39.672-8.679 59.551-12.714 7.589-1.515 15.136-2.62 22.895-3.115 3.879-.255 7.943.382 11.482 1.798 3.668 1.572 6.952 3.823 9.458 6.825a41.3 41.3 0 0 1 8.92 16.041c2.365 7.703 4.574 15.518 6.329 23.433 2.322 10.406 2.209 20.94-1.586 31.177-1.741 5.069-1.953 10.463-.722 15.603.524 2.775 1.048 5.55 1.671 8.75 16.523.113 33.372 0 50.929-.198-1.133-1.275-1.628-1.912-2.138-2.393a53.3 53.3 0 0 1-12.148-17.698 35.3 35.3 0 0 1-2.705-9.586c-1.076-7.688 7.547-15.503 15.15-12.304.963.255 1.94.51 2.917.638l.411.198zm169.634 48.324c0-2.421.255-4.531.227-6.669 0-10.69-.17-21.266-.184-31.956-.071-11.412 0-22.81-.057-34.221 0-4.7-1.77-6.626-6.258-8.453-12.672-4.927-25.358-9.727-38.016-14.796-17.953-7.277-35.878-14.824-54.284-20.728-3.285-1.104-6.627-1.784-9.798-2.733-6.641 13.89-18.18 17.373-34.788 10.676-1.628 1.657-3.54 3.427-5.324 5.21-6.484 6.5-11.525 14.173-14.979 22.74-.991 2.307-1.445 4.955-1.176 7.418.255 2.591 1.261 4.998 2.875 7.037 2.024-.184 4.162-.212 6.159-.269 1.826.213 3.766.736 5.536 1.373l.396-3.37c1.02-8.58 7.348-13.804 15.858-13.365 3.695.156 7.405 1.317 10.59 3.256 7.193 4.276 13.862 9.36 20.021 15.08 15.121 14.356 33.23 22.639 53.449 26.476 1.118.127 2.265.127 3.44-.156 4.092-.793 6.471.765 7.349 4.163.184.878.226 1.741 0 2.421-.099.849-.482 1.656-.991 2.308-.51.651-1.147 1.288-1.77 1.642-.765.482-1.501.68-2.379.85-1.897.339-3.879.255-5.692-.114-13.55-2.322-26.717-6.753-38.908-13.337-8.849-4.757-16.452-11.511-24.098-17.981-4.658-3.979-9.783-7.59-14.796-11.03a16.2 16.2 0 0 0-5.989-2.421c-3.936-.467-5.72 1.317-4.884 5.125.665 2.79 1.486 5.451 2.605 8.014.637 1.784 1.43 3.596 1.925 5.366a5.1 5.1 0 0 1-.099 3.271c-.41 1.09-1.076 1.869-2.024 2.605-.807.765-1.841 1.062-3.002 1.218-1.147 0-2.251-.269-3.172-.949-1.727-1.062-3.256-2.534-4.969-3.724-2.889-2.053-5.749-4.389-9.218-5.238-1.09.722-1.783 1.784-2.067 3.03-.283 1.246-.297 2.534.269 3.738 1.091 2.845 2.195 5.535 3.441 8.254 1.019 2.265 2.449 4.573 3.469 6.824.58 1.062.722 2.365.425 3.611-.156 1.26-.85 2.322-1.799 3.072-.948.737-2.138 1.176-3.299 1.317-1.288 0-2.392-.283-3.454-.977-1.459-.892-2.45-2.152-3.738-3.299-3.002-2.35-6.003-4.701-9.161-6.938a26 26 0 0 0-4.63-1.84c.34 1.897.694 3.794 1.331 5.578a48 48 0 0 0 11.143 16.58c2.832 2.619 5.493 5.366 8.141 8.24.51.496 1.02.977 1.713 1.204s1.374.453 1.969.24c4.006-.099 7.985-.042 11.978 0l66.644-.467c9.996-.085 19.964-.042 30.116-.255 4.587-.169 6.825 1.388 6.994 5.961.213 4.163-.127 8.255-.198 12.389-.056 1.699.014 3.426-.057 5.267l3.087.368c5.38.354 10.747.708 16.141.92 1.416.029 2.959.354 4.134 1.204a8.95 8.95 0 0 1 3.059 3.072c1.67 2.761 4.106 5.055 7.943 3.936 1.019-.17 2.038-.325 3.058-.495l-.227-12.432c-.24-.311-.651-.509-1.062-.693-.679-.227-1.515-.467-2.194-.694-10.407-3.667-17.415-10.633-20.7-21.294-.736-2.223-1.19-4.418-1.756-6.768-1.911-9.062-.679-18.194-1.175-27.227-.17-2.152-.042-4.432.071-6.556.368-4.233 2.676-6.952 5.946-6.853 3.13.085 5.267 2.478 5.282 7.193 0 7.136 0 14.399-.015 21.677-.113 5.692.779 11.355 2.719 16.721.934 2.959 2.619 5.593 4.771 7.844 2.308 2.124 4.984 3.596 8.028 4.375l.071-.566zM55.198 161.337c.084-3.129.254-5.677.269-8.24 0-5.989 2.293-8.424 8.41-8.41 12.856-.184 25.67-.071 38.526-.255 18.972-.014 37.803-.198 56.634-.241 1.416.028 2.874-.226 4.177-.354-.354-3.03-.467-5.621-.892-8.084-1.373-6.443-.85-13.225 1.317-19.384 5.097-14.073 1.43-27.495-2.846-40.691-3.03.354-5.678 1.033-8.212.736-4.361-.524-8.623-1.883-12.332-4.177-3.696-2.435-6.74-5.65-8.849-9.472-1.912-3.087-3.512-6.414-5.622-10.223L13.401 76.642c-.51 23.46-1.005 46.652-1.543 70.396 4.304-2.619 7.872-6.187 10.25-10.619 5.877-9.854 9.034-20.742 11.625-31.701.212-1.826.453-3.794.396-5.663-.155-3.441 1.289-5.975 4.05-6.5.736-.198 1.444-.112 2.138-.028.694.085 1.373.454 2.039.807.665.369 1.16.992 1.515 1.615.353.608.693 1.359.75 2.08.538 2.634.651 5.353.326 8.029a126 126 0 0 1-9.53 29.662c-4.827 10.548-11.44 19.454-22.2 24.735a4.3 4.3 0 0 0-1.444 1.402c-.368.665-.453 1.373-.24 1.968-.03 4.984-.185 9.953-.227 15.093-.1 1.982-.043 3.993-.029 6.272l14.47.581.624-5.196c.354-2.96.424-5.933 1.061-8.864 1.105-5.72 4.276-8.325 10.01-8.651 5.735-.311 11.61-.467 17.784-.878v.142zm154.47 41.386c21.72-.411 42.972-.439 64.592-1.133.184-15.943.439-31.177.312-46.879l-64.493.297a4466 4466 0 0 0-.396 47.573v.142zm-73.072-47.219c-.383 16.353-.694 32.14-1.048 48.21 21.139-.326 41.966-.411 63.006-1.048.212-16.084.368-31.758.396-47.573l-62.496.397h.142zm212.139-.935-62.921.34a5189 5189 0 0 0-.312 46.879l61.845-.892c.439-15.631.807-30.696 1.246-46.341h.142zm-282.196 1.289a3882 3882 0 0 0-.567 48.989l58.56-.864 1.062-48.352zm-33.556 62.581 347.665-2.605.454-3.795c-5.975-.142-11.766-.552-17.472-.51-13.975.043-27.992.369-41.981.553l-116.412 1.656c-21.281.312-42.703.609-63.997.92-19.582.368-39.022.765-58.575 1.006-5.564.042-11.015.255-16.537.028-9.642-.439-19.256-1.161-28.884-1.727l-4.672-.269c.1 1.585.24 2.732.453 4.615v.142zM165.45 11.511c.142 1.161.722 2.364 1.317 3.299.736.948 1.486 1.883 2.562 2.45 1.714 1.203 3.569 2.42 5.409 3.638 1.6.906 2.874 2.195 3.837 3.738s1.458 3.313 1.543 5.026c.312 3.313.935 6.527 1.487 10.294 1.133-1.147 1.784-1.785 2.449-2.563 1.827-2.209 3.526-4.432 5.211-6.655.849-1.175 1.968-2.194 3.214-3.044 1.232-.708 2.718-1.246 4.148-1.359 5.777-.595 10.393-3.469 14.796-6.938 2.804-1.954 5.126-4.672 6.485-7.787l-52.585-.283.127.156zM38.094 173.13c-.028 4.984-.128 9.402-.24 13.946l-.142 13.097c-.17 1.402.24 2.733 1.953 2.804 4.956.311 9.926.467 15.179.665.127-10.675.325-20.643.424-31.036l-17.032.538h-.142zm338.25 5.834c-5.861.155-11.284-1.062-17.033-.609-.325 7.518-.608 14.611-.906 21.988 6.117.156 11.978 1.147 17.798-2.152 0-4.842.042-9.982.226-15.093 0-1.147 0-2.28-.057-4.29v.141z"/><path fill="#102185" d="M315.151 69.137c-1.685-.199-3.172-.949-4.305-2.223s-1.656-2.903-1.585-4.616a5.6 5.6 0 0 1 .679-2.053c.368-.665.85-1.175 1.487-1.67.637-.496 1.246-.85 1.968-.907a5.6 5.6 0 0 1 2.152-.17c1.685.198 3.143 1.09 4.262 2.506.991 1.26 1.656 2.903 1.444 4.588-.17 1.401-1.034 2.732-2.138 3.596s-2.577 1.26-3.979 1.09v-.142zM337.068 81.454c-1.544-.184-2.874-1.061-3.724-2.293-.849-1.246-1.387-2.733-1.203-4.276.184-1.544.169-1.402.679-2.053.368-.666.85-1.175 1.487-1.67.637-.496 1.232-.709 1.968-.907a5.6 5.6 0 0 1 2.152-.17c1.543.184 2.874 1.062 3.724 2.294.849 1.246 1.246 2.718 1.076 4.12s-.92 2.888-2.011 3.752c-1.118 1.005-2.591 1.402-4.148 1.36zM86.474 89.072c.708.084 1.402.17 2.081.537.68.369 1.204.709 1.558 1.332.51.495.708 1.231.92 1.826s.27 1.317.184 2.025c-.198 1.685-.963 3.313-2.379 4.417-1.274 1.133-3.044 1.628-4.757 1.572-1.543-.184-3.044-.793-4.05-1.912-1.004-1.118-1.684-2.62-1.642-4.19.383-3.229 4.135-5.919 7.943-5.608zM119.875 86.495c-.085.708-.184 1.544-.553 2.223-.368.68-.863 1.317-1.5 1.813-.638.495-1.246.85-1.983 1.047-.736.199-1.6.241-2.293.156-1.685-.198-3.144-1.09-4.121-2.492-.991-1.26-1.486-3.03-1.288-4.715.085-.707.17-1.401.68-2.053.368-.665.849-1.175 1.345-1.699.623-.495 1.246-.85 1.982-1.047a5.6 5.6 0 0 1 2.152-.17c.85.099 1.685.198 2.336.708a8.5 8.5 0 0 1 1.954 1.515c.496.623.977 1.401 1.175 2.137.198.737.383 1.615.284 2.464l-.156.128z"/></svg>
